chat/static/images/icons/chevron_left.svg

<svg viewBox="0 0 420 420" version="1.1" width="420" height="420" xmlns="http://www.w3.org/2000/svg">
    <path d="m 16.8945,7.17773 c 1.2696,0 2.3438,-0.48828 3.1739,-1.31835 L 58.7891,-31.9824 c 0.9277,-0.9278 1.416,-2.0508 1.416,-3.2715 0,-1.2695 -0.4883,-2.4414 -1.416,-3.2715 l -38.6719,-37.793 c -0.8789,-0.8789 -1.9531,-1.3671 -3.2227,-1.3671 -2.539,0 -4.4433,1.9531 -4.4433,4.4921 0,1.1719 0.4883,2.3438 1.2695,3.1739 l 35.5469,34.7656 -35.5469,34.765619 c -0.7812,0.830078 -1.2695,1.953121 -1.2695,3.173831 0,2.53906 1.9043,4.49218 4.4433,4.49218 z" transform="matrix(5.0257675,0,0,4.9491399,27.423164,384.47641)"/>
</svg>

<svg viewBox="0 0 47.75390625 84.9111328125" xmlns="http://www.w3.org/2000/svg">
    <g transform="matrix(1 0 0 1 -12.451191406250018 77.685546875)">
        <path d="M 16.8945 7.17773 C 18.1641 7.17773 19.2383 6.68945 20.0684 5.85938 L 58.7891 -31.9824 C 59.7168 -32.9102 60.2051 -34.0332 60.2051 -35.2539 C 60.2051 -36.5234 59.7168 -37.6953 58.7891 -38.5254 L 20.1172 -76.3184 C 19.2383 -77.1973 18.1641 -77.6855 16.8945 -77.6855 C 14.3555 -77.6855 12.4512 -75.7324 12.4512 -73.1934 C 12.4512 -72.0215 12.9395 -70.8496 13.7207 -70.0195 L 49.2676 -35.2539 L 13.7207 -0.488281 C 12.9395 0.341797 12.4512 1.46484 12.4512 2.68555 C 12.4512 5.22461 14.3555 7.17773 16.8945 7.17773 Z" />
    </g>
</svg>
